lib/flags/s/016.svg

<svg xmlns="http://www.w3.org/2000/svg" fill="none" viewBox="0 0 16 12"><mask id="016_svg__a" width="16" height="12" x="0" y="0" mask-type="alpha" maskUnits="userSpaceOnUse"><path fill="#fff" d="M0 0H16V12H0z"/></mask><g mask="url(#016_svg__a)"><path fill="#2E42A5" fill-rule="evenodd" d="M0 0H16V12H0V0Z" clip-rule="evenodd"/><mask id="016_svg__b" width="9" height="7" x="0" y="0" mask-type="alpha" maskUnits="userSpaceOnUse"><path fill="#fff" d="M0 0H9V7H0z"/></mask><g mask="url(#016_svg__b)"><path fill="#F7FCFF" d="M-1.00214 6.49987L0.978339 7.36847L9.04494 0.94433L10.0896 -0.346436L7.97176 -0.636747L4.68159 2.1316L2.03334 3.99682L-1.00214 6.49987Z"/><path fill="#F50100" d="M-0.731018 7.10849L0.277943 7.61255L9.71445 -0.466309H8.29775L-0.731018 7.10849Z"/><path fill="#F7FCFF" d="M10.0021 6.49987L8.02166 7.36847L-0.0449371 0.94433L-1.08959 -0.346436L1.02824 -0.636747L4.31841 2.1316L6.96666 3.99682L10.0021 6.49987Z"/><path fill="#F50100" d="M9.93457 6.93667L8.92561 7.44073L4.90745 3.98176L3.71615 3.59529L-1.1901 -0.341973H0.226597L5.13009 3.50184L6.43256 3.96525L9.93457 6.93667Z"/><mask id="016_svg__c" width="11" height="9" x="-1" y="-1" fill="#000" maskUnits="userSpaceOnUse"><path fill="#fff" d="M-1-1H10V8H-1z"/><path fill-rule="evenodd" d="M4.99226 0H3.99226V3H0V4H3.99226V7H4.99226V4H9V3H4.99226V0Z" clip-rule="evenodd"/></mask><path fill="#F50100" fill-rule="evenodd" d="M4.99226 0H3.99226V3H0V4H3.99226V7H4.99226V4H9V3H4.99226V0Z" clip-rule="evenodd"/><path fill="#F7FCFF" d="M3.99226 0V-0.75H3.24226V0H3.99226ZM4.99226 0H5.74226V-0.75H4.99226V0ZM3.99226 3V3.75H4.74226V3H3.99226ZM0 3V2.25H-0.75V3H0ZM0 4H-0.75V4.75H0V4ZM3.99226 4H4.74226V3.25H3.99226V4ZM3.99226 7H3.24226V7.75H3.99226V7ZM4.99226 7V7.75H5.74226V7H4.99226ZM4.99226 4V3.25H4.24226V4H4.99226ZM9 4V4.75H9.75V4H9ZM9 3H9.75V2.25H9V3ZM4.99226 3H4.24226V3.75H4.99226V3ZM3.99226 0.75H4.99226V-0.75H3.99226V0.75ZM4.74226 3V0H3.24226V3H4.74226ZM0 3.75H3.99226V2.25H0V3.75ZM0.75 4V3H-0.75V4H0.75ZM3.99226 3.25H0V4.75H3.99226V3.25ZM4.74226 7V4H3.24226V7H4.74226ZM4.99226 6.25H3.99226V7.75H4.99226V6.25ZM4.24226 4V7H5.74226V4H4.24226ZM9 3.25H4.99226V4.75H9V3.25ZM8.25 3V4H9.75V3H8.25ZM4.99226 3.75H9V2.25H4.99226V3.75ZM4.24226 0V3H5.74226V0H4.24226Z" mask="url(#016_svg__c)"/></g><path fill="#F7FCFF" d="M4.40801 9.83423 3.81758 10.3799 3.87605 9.57805 3.08133 9.45664 3.74467 9.00243 3.34409 8.30538 4.1128 8.54081 4.40801 7.79303 4.70323 8.54081 5.47193 8.30538 5.07135 9.00243 5.73469 9.45664 4.93997 9.57805 4.99844 10.3799 4.40801 9.83423zM10.776 6.06899 10.3824 6.43275 10.4214 5.89821 9.89155 5.81726 10.3338 5.51446 10.0667 5.04976 10.5792 5.20671 10.776 4.70819 10.9728 5.20671 11.4853 5.04976 11.2182 5.51446 11.6605 5.81726 11.1306 5.89821 11.1696 6.43275 10.776 6.06899zM11.7147 2.37667 11.321 2.74043 11.36 2.20588 10.8302 2.12494 11.2724 1.82213 11.0054 1.35744 11.5179 1.51439 11.7147 1.01587 11.9115 1.51439 12.4239 1.35744 12.1569 1.82213 12.5991 2.12494 12.0693 2.20588 12.1083 2.74043 11.7147 2.37667zM14.0613 4.22286 13.6677 4.58662 13.7067 4.05208 13.1769 3.97113 13.6191 3.66833 13.3521 3.20363 13.8645 3.36058 14.0613 2.86206 14.2582 3.36058 14.7706 3.20363 14.5036 3.66833 14.9458 3.97113 14.416 4.05208 14.455 4.58662 14.0613 4.22286zM12.184 9.53054 11.7904 9.8943 11.8294 9.35975 11.2995 9.27881 11.7418 8.976 11.4747 8.51131 11.9872 8.66826 12.184 8.16974 12.3808 8.66826 12.8933 8.51131 12.6262 8.976 13.0684 9.27881 12.5386 9.35975 12.5776 9.8943 12.184 9.53054zM13.8267 6.64792 13.4267 6.85817 13.5031 6.41285 13.1796 6.09746 13.6267 6.03249 13.8267 5.62732 14.0266 6.03249 14.4738 6.09746 14.1502 6.41285 14.2266 6.85817 13.8267 6.64792z"/></g></svg>

<svg xmlns="http://www.w3.org/2000/svg" fill="none" viewBox="0 0 16 12"><mask id="016_svg__a" width="16" height="12" x="0" y="0" maskUnits="userSpaceOnUse"><path fill="#fff" d="M0 0h16v12H0z"/></mask><g mask="url(#016_svg__a)"><path fill="#2E42A5" fill-rule="evenodd" d="M0 0h16v12H0V0z" clip-rule="evenodd"/><mask id="016_svg__b" width="9" height="7" x="0" y="0" maskUnits="userSpaceOnUse"><path fill="#fff" d="M0 0h9v7H0z"/></mask><g mask="url(#016_svg__b)"><path fill="#F7FCFF" d="M-1.002 6.5l1.98.868L9.045.944l1.045-1.29-2.118-.29-3.29 2.768-2.649 1.865L-1.002 6.5z"/><path fill="#F50100" d="M-.731 7.108l1.009.505 9.437-8.08H8.298L-.731 7.109z"/><path fill="#F7FCFF" d="M10.002 6.5l-1.98.868L-.045.944-1.09-.346l2.118-.29 3.29 2.768 2.649 1.865L10.002 6.5z"/><path fill="#F50100" d="M9.935 6.937l-1.01.504-4.018-3.46-1.19-.386L-1.19-.342H.227L5.13 3.502l1.303.463 3.502 2.972z"/><mask id="016_svg__c" width="11" height="9" x="-1" y="-1" fill="#000" maskUnits="userSpaceOnUse"><path fill="#fff" d="M-1-1h11v9H-1z"/><path fill-rule="evenodd" d="M4.992 0h-1v3H0v1h3.992v3h1V4H9V3H4.992V0z" clip-rule="evenodd"/></mask><path fill="#F50100" fill-rule="evenodd" d="M4.992 0h-1v3H0v1h3.992v3h1V4H9V3H4.992V0z" clip-rule="evenodd"/><path fill="#F7FCFF" d="M3.992 0v-.75h-.75V0h.75zm1 0h.75v-.75h-.75V0zm-1 3v.75h.75V3h-.75zM0 3v-.75h-.75V3H0zm0 1h-.75v.75H0V4zm3.992 0h.75v-.75h-.75V4zm0 3h-.75v.75h.75V7zm1 0v.75h.75V7h-.75zm0-3v-.75h-.75V4h.75zM9 4v.75h.75V4H9zm0-1h.75v-.75H9V3zM4.992 3h-.75v.75h.75V3zm-1-2.25h1v-1.5h-1v1.5zM4.742 3V0h-1.5v3h1.5zM0 3.75h3.992v-1.5H0v1.5zM.75 4V3h-1.5v1h1.5zm3.242-.75H0v1.5h3.992v-1.5zM4.742 7V4h-1.5v3h1.5zm.25-.75h-1v1.5h1v-1.5zM4.242 4v3h1.5V4h-1.5zM9 3.25H4.992v1.5H9v-1.5zM8.25 3v1h1.5V3h-1.5zm-3.258.75H9v-1.5H4.992v1.5zM4.242 0v3h1.5V0h-1.5z" mask="url(#016_svg__c)"/></g><path fill="#F7FCFF" d="M4.408 9.834l-.59.546.058-.802-.795-.121.664-.455-.4-.697.768.236.295-.748.295.748.769-.236-.4.697.663.455-.795.121.058.802-.59-.546zm6.368-3.765l-.394.364.04-.535-.53-.08.442-.304-.267-.464.512.157.197-.499.197.499.512-.157-.267.464.442.303-.53.081.04.535-.394-.364zm.939-3.692l-.394.363.04-.534-.53-.081.442-.303-.268-.465.513.157.197-.498.197.498.512-.157-.267.465.442.303-.53.08.04.535-.394-.363zm2.346 1.846l-.393.364.039-.535-.53-.08.442-.304-.267-.464.513.157.196-.499.197.499.513-.157-.267.464.442.303-.53.081.039.535-.394-.364zM12.184 9.53l-.394.364.04-.534-.53-.081.442-.303-.267-.465.512.157.197-.498.197.498.512-.157-.267.465.443.303-.53.08.039.535-.394-.363zm1.643-2.882l-.4.21.076-.445-.323-.316.447-.065.2-.405.2.405.447.065-.324.316.077.445-.4-.21z"/></g></svg>
